libs/icons/src/svg/strikethrough.svg

<svg width="16" height="16" viewBox="0 0 16 16" fill="none" xmlns="http://www.w3.org/2000/svg">
<g clip-path="url(#clip0_4_303)">
<path fill-rule="evenodd" clip-rule="evenodd" d="M0.666667 0.666667C0.666667 0.298477 0.965144 0 1.33333 0H8H14.6667C15.0349 0 15.3333 0.298477 15.3333 0.666667V2.66667C15.3333 3.03486 15.0349 3.33333 14.6667 3.33333C14.2985 3.33333 14 3.03486 14 2.66667V1.33333H8.66667V7.33333H15.3333C15.7015 7.33333 16 7.63181 16 8C16 8.36819 15.7015 8.66667 15.3333 8.66667H8H0.666667C0.298477 8.66667 0 8.36819 0 8C0 7.63181 0.298477 7.33333 0.666667 7.33333H7.33333V1.33333H2V2.66667C2 3.03486 1.70152 3.33333 1.33333 3.33333C0.965144 3.33333 0.666667 3.03486 0.666667 2.66667V0.666667ZM4.66667 14.6667C4.29848 14.6667 4 14.9651 4 15.3333C4 15.7015 4.29848 16 4.66667 16H8H11.3333C11.7015 16 12 15.7015 12 15.3333C12 14.9651 11.7015 14.6667 11.3333 14.6667H8.66667V10.6667C8.66667 10.2985 8.36819 10 8 10C7.63181 10 7.33333 10.2985 7.33333 10.6667V14.6667H4.66667Z" fill="#202327"/>
</g>
<defs>
<clipPath id="clip0_4_303">
<rect width="16" height="16" fill="white"/>
</clipPath>
</defs>
</svg>

<svg xmlns="http://www.w3.org/2000/svg" viewBox="0 0 16 16" class="sageicon"><path fill-rule="evenodd" d="M.667.667C.667.298.965 0 1.333 0h13.334c.368 0 .666.298.666.667v2a.667.667 0 1 1-1.333 0V1.333H8.667v6h6.666a.667.667 0 1 1 0 1.334H.667a.667.667 0 0 1 0-1.334h6.666v-6H2v1.334a.667.667 0 0 1-1.333 0v-2Zm4 14a.667.667 0 1 0 0 1.333h6.666a.667.667 0 0 0 0-1.333H8.667v-4a.667.667 0 1 0-1.334 0v4H4.667Z"/></svg>
